X: 7712
T: Colliers', The
R: reel
M: 4/4
K: Dmixolydian
|:~F3 G ~A3 B|cAdB cAGG|Add^c d2de|fd ~e2 dcAG|
FEFG ~A3 B|cAdB cAGG|Add^c ~A3 G|1 EFGE FDDE:|2 EFGE FDDg||
|:~f2 eg fde^c|Add^c Adde|~f2 eg fde^c|AGAB c3d|
eaag efge|dg/f/ed cAGG|Add^c ~A3 G|1 EFGE FDDg:|2 EFGE FDDE||

